images/icons/terrace.svg

<svg height="32pt" viewBox="0 0 32 32" width="32pt" xmlns="http://www.w3.org/2000/svg"><g fill="#fff"><path d="m31.5 1.5v-1h-15.5c-.277344 0-.5.222656-.5.5v4c0 .277344.222656.5.5.5h.5v25h-16v1h31v-1h-6v-2.5h6v-1h-10v-1h10v-1h-10.5c-.277344 0-.5.222656-.5.5v2c0 .277344.222656.5.5.5h1.5v2.5h-3v-25h12v-1h-15v-3zm-8 26.5h1v2.5h-1zm-5-22.5v25h-1v-25zm0 0"/><path d="m10.5 16c0-1.058594-.25-2.117188-.722656-3.066406l-.328125-.65625c-.171875-.339844-.726563-.339844-.894531 0l-.332032.65625c-.472656.949218-.722656 2.007812-.722656 3.066406 0 .121094.015625.242188.019531.359375-.320312-.238281-.691406-.417969-1.085937-.515625l-1.3125-.328125c-.167969-.042969-.351563.007813-.472656.132813-.125.121093-.175782.300781-.132813.472656l.328125 1.316406c.132812.535156.410156 1.027344.800781 1.417969s.882813.667969 1.417969.800781h.003906l.335938.085938-.625.3125.445312.894531 1.277344-.640625v1.191406h-3.5c-.277344 0-.5.222656-.5.5v2c0 .277344.222656.5.5.5h.546875l.457031 4.550781c.023438.253907.238282.449219.496094.449219h5c.257812 0 .472656-.195312.496094-.449219l.457031-4.550781h.546875c.277344 0 .5-.222656.5-.5v-2c0-.277344-.222656-.5-.5-.5h-3.5v-1.191406l1.277344.636718.445312-.894531-.625-.3125.335938-.082031c.539062-.132812 1.03125-.410156 1.417968-.804688.394532-.386718.671876-.878906.804688-1.417968l.328125-1.3125c.042969-.171875-.007813-.351563-.132813-.472656-.121093-.125-.304687-.175782-.472656-.132813l-1.316406.328125c-.390625.097656-.761719.273438-1.085938.515625.007813-.117187.023438-.238281.023438-.359375zm.546875 12.5h-4.09375l-.398437-4h4.894531zm1.453125-5h-7v-1h7zm-3.5-9.867188c.328125.742188.5 1.554688.5 2.367188s-.171875 1.625-.5 2.367188c-.328125-.742188-.5-1.554688-.5-2.367188s.171875-1.625.5-2.367188zm-2.648438 4.515626c-.261718-.265626-.445312-.59375-.539062-.957032l-.125-.503906.503906.125c.363282.09375.691406.277344.957032.539062.261718.265626.445312.59375.539062.957032l.125.503906-.503906-.125c-.363282-.09375-.691406-.277344-.957032-.539062zm5.457032-1.335938.503906-.125-.125.503906c-.09375.363282-.277344.691406-.539062.957032-.265626.261718-.59375.445312-.957032.539062l-.503906.125.125-.503906c.09375-.363282.277344-.691406.539062-.957032.265626-.261718.59375-.445312.957032-.539062zm0 0"/><path d="m2.5 7.5h6.5c1.378906 0 2.5-1.121094 2.5-2.5s-1.121094-2.5-2.5-2.5c-.21875 0-.4375.03125-.652344.089844-.382812-1.226563-1.511718-2.089844-2.847656-2.089844-1.65625 0-3 1.34375-3 3-1.101562 0-2 .898438-2 2s.898438 2 2 2zm0-3c.136719 0 .265625.027344.390625.078125.175781.074219.378906.042969.523437-.078125.144532-.125.203126-.320312.15625-.503906-.046874-.191406-.070312-.347656-.070312-.496094 0-1.101562.898438-2 2-2 1.039062 0 1.890625.785156 1.980469 1.832031.015625.171875.117187.324219.269531.402344.15625.078125.339844.070313.484375-.015625.242187-.144531.5-.21875.765625-.21875.828125 0 1.5.671875 1.5 1.5s-.671875 1.5-1.5 1.5h-6.5c-.550781 0-1-.449219-1-1s.449219-1 1-1zm0 0"/></g></svg>

<?xml version="1.0" encoding="UTF-8"?>
<svg xmlns="http://www.w3.org/2000/svg" xmlns:xlink="http://www.w3.org/1999/xlink" width="32pt" height="32pt" viewBox="0 0 32 32" version="1.1">
<g id="surface1">
<path style=" stroke:none;fill-rule:nonzero;fill:rgb(255, 255, 255);fill-opacity:1;" d="M 31.5 1.5 L 31.5 0.5 L 16 0.5 C 15.722656 0.5 15.5 0.722656 15.5 1 L 15.5 5 C 15.5 5.277344 15.722656 5.5 16 5.5 L 16.5 5.5 L 16.5 30.5 L 0.5 30.5 L 0.5 31.5 L 31.5 31.5 L 31.5 30.5 L 25.5 30.5 L 25.5 28 L 31.5 28 L 31.5 27 L 21.5 27 L 21.5 26 L 31.5 26 L 31.5 25 L 21 25 C 20.722656 25 20.5 25.222656 20.5 25.5 L 20.5 27.5 C 20.5 27.777344 20.722656 28 21 28 L 22.5 28 L 22.5 30.5 L 19.5 30.5 L 19.5 5.5 L 31.5 5.5 L 31.5 4.5 L 16.5 4.5 L 16.5 1.5 Z M 23.5 28 L 24.5 28 L 24.5 30.5 L 23.5 30.5 Z M 18.5 5.5 L 18.5 30.5 L 17.5 30.5 L 17.5 5.5 Z M 18.5 5.5 "/>
<path style=" stroke:none;fill-rule:nonzero;fill:rgb(255, 255, 255);fill-opacity:1;" d="M 10.5 16 C 10.5 14.941406 10.25 13.882812 9.777344 12.933594 L 9.449219 12.277344 C 9.277344 11.9375 8.722656 11.9375 8.554688 12.277344 L 8.222656 12.933594 C 7.75 13.882812 7.5 14.941406 7.5 16 C 7.5 16.121094 7.515625 16.242188 7.519531 16.359375 C 7.199219 16.121094 6.828125 15.941406 6.433594 15.84375 L 5.121094 15.515625 C 4.953125 15.472656 4.769531 15.523438 4.648438 15.648438 C 4.523438 15.769531 4.472656 15.949219 4.515625 16.121094 L 4.84375 17.4375 C 4.976562 17.972656 5.253906 18.464844 5.644531 18.855469 C 6.035156 19.246094 6.527344 19.523438 7.0625 19.65625 L 7.066406 19.65625 L 7.402344 19.742188 L 6.777344 20.054688 L 7.222656 20.949219 L 8.5 20.308594 L 8.5 21.5 L 5 21.5 C 4.722656 21.5 4.5 21.722656 4.5 22 L 4.5 24 C 4.5 24.277344 4.722656 24.5 5 24.5 L 5.546875 24.5 L 6.003906 29.050781 C 6.027344 29.304688 6.242188 29.5 6.5 29.5 L 11.5 29.5 C 11.757812 29.5 11.972656 29.304688 11.996094 29.050781 L 12.453125 24.5 L 13 24.5 C 13.277344 24.5 13.5 24.277344 13.5 24 L 13.5 22 C 13.5 21.722656 13.277344 21.5 13 21.5 L 9.5 21.5 L 9.5 20.308594 L 10.777344 20.945312 L 11.222656 20.050781 L 10.597656 19.738281 L 10.933594 19.65625 C 11.472656 19.523438 11.964844 19.246094 12.351562 18.851562 C 12.746094 18.464844 13.023438 17.972656 13.15625 17.433594 L 13.484375 16.121094 C 13.527344 15.949219 13.476562 15.769531 13.351562 15.648438 C 13.230469 15.523438 13.046875 15.472656 12.878906 15.515625 L 11.5625 15.84375 C 11.171875 15.941406 10.800781 16.117188 10.476562 16.359375 C 10.484375 16.242188 10.5 16.121094 10.5 16 Z M 11.046875 28.5 L 6.953125 28.5 L 6.554688 24.5 L 11.449219 24.5 Z M 12.5 23.5 L 5.5 23.5 L 5.5 22.5 L 12.5 22.5 Z M 9 13.632812 C 9.328125 14.375 9.5 15.1875 9.5 16 C 9.5 16.8125 9.328125 17.625 9 18.367188 C 8.671875 17.625 8.5 16.8125 8.5 16 C 8.5 15.1875 8.671875 14.375 9 13.632812 Z M 6.351562 18.148438 C 6.089844 17.882812 5.90625 17.554688 5.8125 17.191406 L 5.6875 16.6875 L 6.191406 16.8125 C 6.554688 16.90625 6.882812 17.089844 7.148438 17.351562 C 7.410156 17.617188 7.59375 17.945312 7.6875 18.308594 L 7.8125 18.8125 L 7.308594 18.6875 C 6.945312 18.59375 6.617188 18.410156 6.351562 18.148438 Z M 11.808594 16.8125 L 12.3125 16.6875 L 12.1875 17.191406 C 12.09375 17.554688 11.910156 17.882812 11.648438 18.148438 C 11.382812 18.410156 11.054688 18.59375 10.691406 18.6875 L 10.1875 18.8125 L 10.3125 18.308594 C 10.40625 17.945312 10.589844 17.617188 10.851562 17.351562 C 11.117188 17.089844 11.445312 16.90625 11.808594 16.8125 Z M 11.808594 16.8125 "/>
<path style=" stroke:none;fill-rule:nonzero;fill:rgb(255, 255, 255);fill-opacity:1;" d="M 2.5 7.5 L 9 7.5 C 10.378906 7.5 11.5 6.378906 11.5 5 C 11.5 3.621094 10.378906 2.5 9 2.5 C 8.78125 2.5 8.5625 2.53125 8.347656 2.589844 C 7.964844 1.363281 6.835938 0.5 5.5 0.5 C 3.84375 0.5 2.5 1.84375 2.5 3.5 C 1.398438 3.5 0.5 4.398438 0.5 5.5 C 0.5 6.601562 1.398438 7.5 2.5 7.5 Z M 2.5 4.5 C 2.636719 4.5 2.765625 4.527344 2.890625 4.578125 C 3.066406 4.652344 3.269531 4.621094 3.414062 4.5 C 3.558594 4.375 3.617188 4.179688 3.570312 3.996094 C 3.523438 3.804688 3.5 3.648438 3.5 3.5 C 3.5 2.398438 4.398438 1.5 5.5 1.5 C 6.539062 1.5 7.390625 2.285156 7.480469 3.332031 C 7.496094 3.503906 7.597656 3.65625 7.75 3.734375 C 7.90625 3.8125 8.089844 3.804688 8.234375 3.71875 C 8.476562 3.574219 8.734375 3.5 9 3.5 C 9.828125 3.5 10.5 4.171875 10.5 5 C 10.5 5.828125 9.828125 6.5 9 6.5 L 2.5 6.5 C 1.949219 6.5 1.5 6.050781 1.5 5.5 C 1.5 4.949219 1.949219 4.5 2.5 4.5 Z M 2.5 4.5 "/>
</g>
</svg>
